X:52
%%etbk:tnset id:350,pos:1,rep:3x,ant:
%%etbk:wsite http://www.thesession.org/tunes/display/1341
%%etbk:color #ffe6e6
%%etbk:pldat 2016-09-13T17:20,2016-09-10T14:33,2016-09-09T18:18,2016-07-31T17:15,2016-07-19T21:13,2016-07-09T14:05,2016-06-01T17:59,2016-05-31T18:39,2016-05-26T18:08,2016-05-24T17:14,2016-05-12T19:27,2016-04-23T16:50,2016-04-12T16:35,2016-04-02T15:14,2016-03-31T17:11,2016-03-22T16:39,2016-03-20T10:27,2016-03-17T17:48,2016-03-14T19:15,2016-02-10T17:38,2016-02-10T17:30,2016-01-27T18:03,2016-01-16T16:14,2016-01-12T18:07,2016-01-03T14:53,2016-01-02T14:16,2016-01-01T16:02,2015-12-31T14:53,2015-12-24T16:11,2015-07-11T16:29,2015-04-06T16:31,2015-03-26T18:34,2015-03-25T18:28,2015-03-23T18:35,2015-01-08T19:17,2014-12-30T18:34,2014-12-27T14:33,2014-12-20T14:14,2014-12-15T16:27,2014-12-03T17:15,2014-11-26T16:25,2014-11-24T16:33,2014-11-22T15:11,2014-11-19T16:26,2014-11-18T16:30,2014-03-22T15:48,2014-03-20T18:43,2014-03-18T17:10,2014-03-16T17:29,2014-02-18T18:05,2014-02-17T19:05,2013-10-05T16:18,2013-05-21T15:22
T: Sailing Into Walpole's Marsh
Z: Piano Box Version by Martin Fleischmann
H: Created 2013-02-19 /  Last Modified 2016-04-17
M: 4/4
L: 1/8
R: reel
K: Ador
"A-Drone"!3!A3A !3!ABcA | !1!E!2!G!2!G!1!E !2!G!1!E!1!D!2!G | !3!A3!1!A !1!ABc!4!d | !5!e2!4!dB !3!ccBc|
!2!A!1!GGG !2!A!1!GGG | !4!G!2!E!1!D!2!E !4!G!2!E!1!D!4!G | !5!A3!1!A !1!ABc!4!d | !5!e!2!c!4!d!2!B !3!c!1!A!2!A!1!A|
!3!A3B !5!c3!3!A | !1!E!2!G!2!G!1!E !2!G!2!E!1!D!2!G | !3!A3!1!A !1!ABc!4!d | !5!e2!4!d!2!B !3!ccBc |
!2!A!1!GGG !2!A!1!GGG | !4!GEDE !4!G!2!E!1!DG | !5!A3!1!A !1!ABc!4!d | !5!ecd!2!B !3!c!1!AA2||
|: "A-Drone"!2!e!4!g!3!gg !2!e!5!aa!3!f| !4!g!2!e!1!d!2!B !3!c!1!A!1!A!4!g| !2!e!4!g!3!gg !2!e!5!aa!4!^g| !5!a!4!g!3!e!1!c !2!d2!1!c!2!d |
!3!e!4!g!3!gg !2!e!5!aa!3!f| !4!g!2!e!1!d!2!B !3!c!1!A!1!A!2!B | !1!c2!4!gc !5!ac!4!gc |1 !2!eage !1!d3 g:|2 !2!eage !1!d3c||


